X:1
T:Zion, 87.87.47
T:Zion, 87.87.47
T:Thomas Hastings, 1830
T:Public Domain CourCourtesy of the Cyber Hymnal™
C:Thomas Hastings, 1830
Z:Public Domain
Z:CourCourtesy of the Cyber Hymnal™
%%score 1 2
L:1/8
Q:1/4=105
M:3/4
K:D
V:1 treble 
V:2 bass 
V:1
|: [FA]>[FA] | [FA]2 [DF]2 [Fd]>[FA] | [GB]2 [FA]2 [Ad]>[Ad] | [Ge]>[Ge] [Fd]2 [Ec]2 | [Fd]4 :| %5
 [DF]>[DF] | [DF]2 D2 [DF]>[DF] | [B,E]>[B,E] [A,D]2 [A,C]2 | [A,D]4 [FA]>[FA] | %9
 [FA]2 [DF]2 [DA]>[DA] | [EG]>[EG] [DF]2 [CE]2 | [DF]4 |] %12
V:2
|: [D,D]>[D,D] | [D,D]2 [D,A,]2 [D,A,]>[D,D] | [G,D]2 [D,D]2 [F,A,]>[F,A,] | %3
 [G,B,]>[G,B,] A,2 [A,,A,]2 | [D,A,]4 :| [D,A,]>[D,A,] | [D,A,]2 [D,F,]2 [D,A,]>[D,A,] | %7
 [G,,G,]>[G,,G,] [A,,F,]2 [A,,E,]2 | [D,F,]4 [D,D]>[D,D] | [D,D]2 [D,A,]2 [D,D]>[D,D] | %10
 [G,B,]>[G,B,] A,2 [A,,A,]2 | [D,A,]4 |] %12

